static/img/organizations/testmuai.svg

<svg width="392" height="61" viewBox="0 0 392 61" fill="none" xmlns="http://www.w3.org/2000/svg">
<path d="M53.6262 0.138739H37.5382V39.0182H53.6262V0.138739Z" fill="black" style="fill:black;fill-opacity:1;"/>
<path d="M16.0881 0.138729H1.90735e-05V22.2598L16.0881 39.0182V0.138729Z" fill="black" style="fill:black;fill-opacity:1;"/>
<path d="M16.0881 39.0182H1.90735e-05V60.4689H16.0881V39.0182Z" fill="black" style="fill:black;fill-opacity:1;"/>
<path d="M37.5391 39.0181H16.0883L28.8247 55.1062H37.5391V39.0181Z" fill="black" style="fill:black;fill-opacity:1;"/>
<mask id="path-5-outside-1_344_209" maskUnits="userSpaceOnUse" x="67.6262" y="-0.6" width="324" height="56" fill="black">
<rect fill="white" x="67.6262" y="-0.6" width="324" height="56"/>
<path d="M69.6262 1.4H109.66V7.32H92.8622V53.2H86.4242V7.32H69.6262V1.4Z"/>
<path d="M107.66 34.33C107.66 30.482 108.4 27.1027 109.88 24.192C111.41 21.2813 113.531 19.0367 116.244 17.458C118.958 15.83 122.066 15.016 125.568 15.016C129.022 15.016 132.08 15.7313 134.744 17.162C137.408 18.5927 139.505 20.6647 141.034 23.378C142.564 26.0913 143.378 29.2733 143.476 32.924C143.476 33.4667 143.427 34.33 143.328 35.514H114.024V36.032C114.123 39.732 115.258 42.692 117.428 44.912C119.599 47.132 122.436 48.242 125.938 48.242C128.652 48.242 130.946 47.576 132.82 46.244C134.744 44.8627 136.027 42.9633 136.668 40.546H142.81C142.07 44.394 140.22 47.5513 137.26 50.018C134.3 52.4353 130.674 53.644 126.382 53.644C122.633 53.644 119.352 52.8547 116.54 51.276C113.728 49.648 111.533 47.3787 109.954 44.468C108.425 41.508 107.66 38.1287 107.66 34.33ZM137.186 30.482C136.89 27.2753 135.682 24.784 133.56 23.008C131.488 21.232 128.849 20.344 125.642 20.344C122.781 20.344 120.265 21.2813 118.094 23.156C115.924 25.0307 114.69 27.4727 114.394 30.482H137.186Z"/>
<path d="M154.992 40.768C155.091 43.0373 156.077 44.8873 157.952 46.318C159.876 47.7487 162.343 48.464 165.352 48.464C168.016 48.464 170.162 47.946 171.79 46.91C173.467 45.8247 174.306 44.4187 174.306 42.692C174.306 41.212 173.911 40.0773 173.122 39.288C172.333 38.4987 171.297 37.956 170.014 37.66C168.781 37.364 167.005 37.068 164.686 36.772C161.43 36.3773 158.766 35.8593 156.694 35.218C154.622 34.5767 152.945 33.5653 151.662 32.184C150.379 30.7533 149.738 28.8047 149.738 26.338C149.738 24.118 150.355 22.1447 151.588 20.418C152.871 18.6913 154.597 17.3593 156.768 16.422C158.939 15.4353 161.381 14.942 164.094 14.942C168.534 14.942 172.135 15.978 174.898 18.05C177.71 20.122 179.264 23.082 179.56 26.93H173.492C173.245 24.9567 172.283 23.3287 170.606 22.046C168.929 20.7633 166.832 20.122 164.316 20.122C161.751 20.122 159.679 20.6647 158.1 21.75C156.521 22.786 155.732 24.1673 155.732 25.894C155.732 27.1767 156.102 28.1633 156.842 28.854C157.582 29.5447 158.519 30.0133 159.654 30.26C160.838 30.5067 162.614 30.778 164.982 31.074C168.287 31.4687 171.001 32.0113 173.122 32.702C175.293 33.3927 177.019 34.5027 178.302 36.032C179.634 37.5613 180.3 39.6333 180.3 42.248C180.3 44.5173 179.634 46.5153 178.302 48.242C176.97 49.9687 175.169 51.3007 172.9 52.238C170.631 53.1753 168.115 53.644 165.352 53.644C160.419 53.644 156.447 52.5093 153.438 50.24C150.478 47.9707 148.973 44.8133 148.924 40.768H154.992Z"/>
<path d="M189.7 21.01H182.892V15.46H189.7V4.878H195.768V15.46H205.314V21.01H195.768V43.284C195.768 44.8627 196.064 45.9973 196.656 46.688C197.297 47.3293 198.383 47.65 199.912 47.65H206.498V53.2H199.542C195.99 53.2 193.449 52.4107 191.92 50.832C190.44 49.2533 189.7 46.762 189.7 43.358V21.01Z"/>
<path d="M211.703 1.4H219.843L238.195 44.394L256.325 1.4H264.317V53.2H258.027V12.352L240.859 53.2H235.161L217.993 12.352V53.2H211.703V1.4Z"/>
<path d="M305.955 15.46V53.2H300.701L299.887 48.168C297.026 51.8187 293.005 53.644 287.825 53.644C283.336 53.644 279.734 52.2627 277.021 49.5C274.308 46.7373 272.951 42.396 272.951 36.476V15.46H279.019V36.106C279.019 40.0033 279.858 42.988 281.535 45.06C283.262 47.0827 285.704 48.094 288.861 48.094C292.314 48.094 295.003 46.8607 296.927 44.394C298.9 41.9273 299.887 38.5727 299.887 34.33V15.46H305.955Z"/>
<path d="M330.264 53.2L350.022 1.4H357.644L377.328 53.2H370.446L364.97 39.214H342.4L336.924 53.2H330.264ZM344.324 33.368H363.046L353.648 8.43L344.324 33.368Z"/>
<path d="M383.189 1.4H389.627V53.2H383.189V1.4Z"/>
</mask>
<path d="M69.6262 1.4H109.66V7.32H92.8622V53.2H86.4242V7.32H69.6262V1.4Z" fill="black" style="fill:black;fill-opacity:1;"/>
<path d="M107.66 34.33C107.66 30.482 108.4 27.1027 109.88 24.192C111.41 21.2813 113.531 19.0367 116.244 17.458C118.958 15.83 122.066 15.016 125.568 15.016C129.022 15.016 132.08 15.7313 134.744 17.162C137.408 18.5927 139.505 20.6647 141.034 23.378C142.564 26.0913 143.378 29.2733 143.476 32.924C143.476 33.4667 143.427 34.33 143.328 35.514H114.024V36.032C114.123 39.732 115.258 42.692 117.428 44.912C119.599 47.132 122.436 48.242 125.938 48.242C128.652 48.242 130.946 47.576 132.82 46.244C134.744 44.8627 136.027 42.9633 136.668 40.546H142.81C142.07 44.394 140.22 47.5513 137.26 50.018C134.3 52.4353 130.674 53.644 126.382 53.644C122.633 53.644 119.352 52.8547 116.54 51.276C113.728 49.648 111.533 47.3787 109.954 44.468C108.425 41.508 107.66 38.1287 107.66 34.33ZM137.186 30.482C136.89 27.2753 135.682 24.784 133.56 23.008C131.488 21.232 128.849 20.344 125.642 20.344C122.781 20.344 120.265 21.2813 118.094 23.156C115.924 25.0307 114.69 27.4727 114.394 30.482H137.186Z" fill="black" style="fill:black;fill-opacity:1;"/>
<path d="M154.992 40.768C155.091 43.0373 156.077 44.8873 157.952 46.318C159.876 47.7487 162.343 48.464 165.352 48.464C168.016 48.464 170.162 47.946 171.79 46.91C173.467 45.8247 174.306 44.4187 174.306 42.692C174.306 41.212 173.911 40.0773 173.122 39.288C172.333 38.4987 171.297 37.956 170.014 37.66C168.781 37.364 167.005 37.068 164.686 36.772C161.43 36.3773 158.766 35.8593 156.694 35.218C154.622 34.5767 152.945 33.5653 151.662 32.184C150.379 30.7533 149.738 28.8047 149.738 26.338C149.738 24.118 150.355 22.1447 151.588 20.418C152.871 18.6913 154.597 17.3593 156.768 16.422C158.939 15.4353 161.381 14.942 164.094 14.942C168.534 14.942 172.135 15.978 174.898 18.05C177.71 20.122 179.264 23.082 179.56 26.93H173.492C173.245 24.9567 172.283 23.3287 170.606 22.046C168.929 20.7633 166.832 20.122 164.316 20.122C161.751 20.122 159.679 20.6647 158.1 21.75C156.521 22.786 155.732 24.1673 155.732 25.894C155.732 27.1767 156.102 28.1633 156.842 28.854C157.582 29.5447 158.519 30.0133 159.654 30.26C160.838 30.5067 162.614 30.778 164.982 31.074C168.287 31.4687 171.001 32.0113 173.122 32.702C175.293 33.3927 177.019 34.5027 178.302 36.032C179.634 37.5613 180.3 39.6333 180.3 42.248C180.3 44.5173 179.634 46.5153 178.302 48.242C176.97 49.9687 175.169 51.3007 172.9 52.238C170.631 53.1753 168.115 53.644 165.352 53.644C160.419 53.644 156.447 52.5093 153.438 50.24C150.478 47.9707 148.973 44.8133 148.924 40.768H154.992Z" fill="black" style="fill:black;fill-opacity:1;"/>
<path d="M189.7 21.01H182.892V15.46H189.7V4.878H195.768V15.46H205.314V21.01H195.768V43.284C195.768 44.8627 196.064 45.9973 196.656 46.688C197.297 47.3293 198.383 47.65 199.912 47.65H206.498V53.2H199.542C195.99 53.2 193.449 52.4107 191.92 50.832C190.44 49.2533 189.7 46.762 189.7 43.358V21.01Z" fill="black" style="fill:black;fill-opacity:1;"/>
<path d="M211.703 1.4H219.843L238.195 44.394L256.325 1.4H264.317V53.2H258.027V12.352L240.859 53.2H235.161L217.993 12.352V53.2H211.703V1.4Z" fill="black" style="fill:black;fill-opacity:1;"/>
<path d="M305.955 15.46V53.2H300.701L299.887 48.168C297.026 51.8187 293.005 53.644 287.825 53.644C283.336 53.644 279.734 52.2627 277.021 49.5C274.308 46.7373 272.951 42.396 272.951 36.476V15.46H279.019V36.106C279.019 40.0033 279.858 42.988 281.535 45.06C283.262 47.0827 285.704 48.094 288.861 48.094C292.314 48.094 295.003 46.8607 296.927 44.394C298.9 41.9273 299.887 38.5727 299.887 34.33V15.46H305.955Z" fill="black" style="fill:black;fill-opacity:1;"/>
<path d="M330.264 53.2L350.022 1.4H357.644L377.328 53.2H370.446L364.97 39.214H342.4L336.924 53.2H330.264ZM344.324 33.368H363.046L353.648 8.43L344.324 33.368Z" fill="black" style="fill:black;fill-opacity:1;"/>
<path d="M383.189 1.4H389.627V53.2H383.189V1.4Z" fill="black" style="fill:black;fill-opacity:1;"/>
<path d="M69.6262 1.4H109.66V7.32H92.8622V53.2H86.4242V7.32H69.6262V1.4Z" stroke="black" style="stroke:black;stroke-opacity:1;" stroke-width="2.8" mask="url(#path-5-outside-1_344_209)"/>
<path d="M107.66 34.33C107.66 30.482 108.4 27.1027 109.88 24.192C111.41 21.2813 113.531 19.0367 116.244 17.458C118.958 15.83 122.066 15.016 125.568 15.016C129.022 15.016 132.08 15.7313 134.744 17.162C137.408 18.5927 139.505 20.6647 141.034 23.378C142.564 26.0913 143.378 29.2733 143.476 32.924C143.476 33.4667 143.427 34.33 143.328 35.514H114.024V36.032C114.123 39.732 115.258 42.692 117.428 44.912C119.599 47.132 122.436 48.242 125.938 48.242C128.652 48.242 130.946 47.576 132.82 46.244C134.744 44.8627 136.027 42.9633 136.668 40.546H142.81C142.07 44.394 140.22 47.5513 137.26 50.018C134.3 52.4353 130.674 53.644 126.382 53.644C122.633 53.644 119.352 52.8547 116.54 51.276C113.728 49.648 111.533 47.3787 109.954 44.468C108.425 41.508 107.66 38.1287 107.66 34.33ZM137.186 30.482C136.89 27.2753 135.682 24.784 133.56 23.008C131.488 21.232 128.849 20.344 125.642 20.344C122.781 20.344 120.265 21.2813 118.094 23.156C115.924 25.0307 114.69 27.4727 114.394 30.482H137.186Z" stroke="black" style="stroke:black;stroke-opacity:1;" stroke-width="2.8" mask="url(#path-5-outside-1_344_209)"/>
<path d="M154.992 40.768C155.091 43.0373 156.077 44.8873 157.952 46.318C159.876 47.7487 162.343 48.464 165.352 48.464C168.016 48.464 170.162 47.946 171.79 46.91C173.467 45.8247 174.306 44.4187 174.306 42.692C174.306 41.212 173.911 40.0773 173.122 39.288C172.333 38.4987 171.297 37.956 170.014 37.66C168.781 37.364 167.005 37.068 164.686 36.772C161.43 36.3773 158.766 35.8593 156.694 35.218C154.622 34.5767 152.945 33.5653 151.662 32.184C150.379 30.7533 149.738 28.8047 149.738 26.338C149.738 24.118 150.355 22.1447 151.588 20.418C152.871 18.6913 154.597 17.3593 156.768 16.422C158.939 15.4353 161.381 14.942 164.094 14.942C168.534 14.942 172.135 15.978 174.898 18.05C177.71 20.122 179.264 23.082 179.56 26.93H173.492C173.245 24.9567 172.283 23.3287 170.606 22.046C168.929 20.7633 166.832 20.122 164.316 20.122C161.751 20.122 159.679 20.6647 158.1 21.75C156.521 22.786 155.732 24.1673 155.732 25.894C155.732 27.1767 156.102 28.1633 156.842 28.854C157.582 29.5447 158.519 30.0133 159.654 30.26C160.838 30.5067 162.614 30.778 164.982 31.074C168.287 31.4687 171.001 32.0113 173.122 32.702C175.293 33.3927 177.019 34.5027 178.302 36.032C179.634 37.5613 180.3 39.6333 180.3 42.248C180.3 44.5173 179.634 46.5153 178.302 48.242C176.97 49.9687 175.169 51.3007 172.9 52.238C170.631 53.1753 168.115 53.644 165.352 53.644C160.419 53.644 156.447 52.5093 153.438 50.24C150.478 47.9707 148.973 44.8133 148.924 40.768H154.992Z" stroke="black" style="stroke:black;stroke-opacity:1;" stroke-width="2.8" mask="url(#path-5-outside-1_344_209)"/>
<path d="M189.7 21.01H182.892V15.46H189.7V4.878H195.768V15.46H205.314V21.01H195.768V43.284C195.768 44.8627 196.064 45.9973 196.656 46.688C197.297 47.3293 198.383 47.65 199.912 47.65H206.498V53.2H199.542C195.99 53.2 193.449 52.4107 191.92 50.832C190.44 49.2533 189.7 46.762 189.7 43.358V21.01Z" stroke="black" style="stroke:black;stroke-opacity:1;" stroke-width="2.8" mask="url(#path-5-outside-1_344_209)"/>
<path d="M211.703 1.4H219.843L238.195 44.394L256.325 1.4H264.317V53.2H258.027V12.352L240.859 53.2H235.161L217.993 12.352V53.2H211.703V1.4Z" stroke="black" style="stroke:black;stroke-opacity:1;" stroke-width="2.8" mask="url(#path-5-outside-1_344_209)"/>
<path d="M305.955 15.46V53.2H300.701L299.887 48.168C297.026 51.8187 293.005 53.644 287.825 53.644C283.336 53.644 279.734 52.2627 277.021 49.5C274.308 46.7373 272.951 42.396 272.951 36.476V15.46H279.019V36.106C279.019 40.0033 279.858 42.988 281.535 45.06C283.262 47.0827 285.704 48.094 288.861 48.094C292.314 48.094 295.003 46.8607 296.927 44.394C298.9 41.9273 299.887 38.5727 299.887 34.33V15.46H305.955Z" stroke="black" style="stroke:black;stroke-opacity:1;" stroke-width="2.8" mask="url(#path-5-outside-1_344_209)"/>
<path d="M330.264 53.2L350.022 1.4H357.644L377.328 53.2H370.446L364.97 39.214H342.4L336.924 53.2H330.264ZM344.324 33.368H363.046L353.648 8.43L344.324 33.368Z" stroke="black" style="stroke:black;stroke-opacity:1;" stroke-width="2.8" mask="url(#path-5-outside-1_344_209)"/>
<path d="M383.189 1.4H389.627V53.2H383.189V1.4Z" stroke="black" style="stroke:black;stroke-opacity:1;" stroke-width="2.8" mask="url(#path-5-outside-1_344_209)"/>
</svg>

<svg xmlns="http://www.w3.org/2000/svg" width="392" height="61" fill="none" viewBox="0 0 392 61"><path fill="#000" d="M53.626.139H37.538v38.88h16.088zM16.088.139H0v22.12l16.088 16.76z" style="fill:#000;fill-opacity:1"/><path fill="#000" d="M16.088 39.018H0v21.45h16.088z" style="fill:#000;fill-opacity:1"/><path fill="#000" d="M37.54 39.018H16.087l12.737 16.088h8.714z" style="fill:#000;fill-opacity:1"/><mask id="a" width="324" height="56" x="67.626" y="-.6" fill="#000" maskUnits="userSpaceOnUse"><path fill="#fff" d="M67.626-.6h324v56h-324z"/><path d="M69.626 1.4h40.034v5.92H92.862V53.2h-6.438V7.32H69.626zM107.66 34.33q0-5.772 2.22-10.138 2.295-4.365 6.364-6.734 4.071-2.442 9.324-2.442 5.18 0 9.176 2.146t6.29 6.216q2.295 4.07 2.442 9.546 0 .814-.148 2.59h-29.304v.518q.149 5.55 3.404 8.88 3.257 3.33 8.51 3.33 4.071 0 6.882-1.998 2.886-2.071 3.848-5.698h6.142q-1.11 5.772-5.55 9.472-4.44 3.626-10.878 3.626-5.624 0-9.842-2.368-4.218-2.442-6.586-6.808-2.294-4.44-2.294-10.138m29.526-3.848q-.444-4.81-3.626-7.474-3.108-2.664-7.918-2.664-4.291 0-7.548 2.812-3.255 2.813-3.7 7.326zM154.992 40.768q.148 3.405 2.96 5.55 2.886 2.145 7.4 2.146 3.996 0 6.438-1.554 2.516-1.627 2.516-4.218 0-2.22-1.184-3.404t-3.108-1.628q-1.85-.444-5.328-.888-4.884-.593-7.992-1.554t-5.032-3.034q-1.924-2.146-1.924-5.846 0-3.33 1.85-5.92 1.924-2.59 5.18-3.996 3.256-1.48 7.326-1.48 6.66 0 10.804 3.108 4.218 3.108 4.662 8.88h-6.068q-.37-2.96-2.886-4.884t-6.29-1.924q-3.847 0-6.216 1.628-2.368 1.554-2.368 4.144 0 1.925 1.11 2.96 1.11 1.036 2.812 1.406 1.776.37 5.328.814 4.958.592 8.14 1.628 3.256 1.035 5.18 3.33 1.998 2.294 1.998 6.216 0 3.404-1.998 5.994t-5.402 3.996-7.548 1.406q-7.4 0-11.914-3.404-4.44-3.405-4.514-9.472zM189.7 21.01h-6.808v-5.55h6.808V4.878h6.068V15.46h9.546v5.55h-9.546v22.274q0 2.368.888 3.404.962.962 3.256.962h6.586v5.55h-6.956q-5.328 0-7.622-2.368-2.22-2.368-2.22-7.474zM211.703 1.4h8.14l18.352 42.994L256.325 1.4h7.992v51.8h-6.29V12.352L240.859 53.2h-5.698l-17.168-40.848V53.2h-6.29zM305.955 15.46V53.2h-5.254l-.814-5.032q-4.292 5.475-12.062 5.476-6.734 0-10.804-4.144t-4.07-13.024V15.46h6.068v20.646q0 5.846 2.516 8.954 2.59 3.034 7.326 3.034 5.18 0 8.066-3.7 2.96-3.7 2.96-10.064V15.46zM330.264 53.2l19.758-51.8h7.622l19.684 51.8h-6.882l-5.476-13.986H342.4L336.924 53.2zm14.06-19.832h18.722L353.648 8.43zM383.189 1.4h6.438v51.8h-6.438z"/></mask><path fill="#000" d="M69.626 1.4h40.034v5.92H92.862V53.2h-6.438V7.32H69.626zM107.66 34.33q0-5.772 2.22-10.138 2.295-4.365 6.364-6.734 4.071-2.442 9.324-2.442 5.18 0 9.176 2.146t6.29 6.216q2.295 4.07 2.442 9.546 0 .814-.148 2.59h-29.304v.518q.149 5.55 3.404 8.88 3.257 3.33 8.51 3.33 4.071 0 6.882-1.998 2.886-2.071 3.848-5.698h6.142q-1.11 5.772-5.55 9.472-4.44 3.626-10.878 3.626-5.624 0-9.842-2.368-4.218-2.442-6.586-6.808-2.294-4.44-2.294-10.138m29.526-3.848q-.444-4.81-3.626-7.474-3.108-2.664-7.918-2.664-4.291 0-7.548 2.812-3.255 2.813-3.7 7.326zM154.992 40.768q.148 3.405 2.96 5.55 2.886 2.145 7.4 2.146 3.996 0 6.438-1.554 2.516-1.627 2.516-4.218 0-2.22-1.184-3.404t-3.108-1.628q-1.85-.444-5.328-.888-4.884-.593-7.992-1.554t-5.032-3.034q-1.924-2.146-1.924-5.846 0-3.33 1.85-5.92 1.924-2.59 5.18-3.996 3.256-1.48 7.326-1.48 6.66 0 10.804 3.108 4.218 3.108 4.662 8.88h-6.068q-.37-2.96-2.886-4.884t-6.29-1.924q-3.847 0-6.216 1.628-2.368 1.554-2.368 4.144 0 1.925 1.11 2.96 1.11 1.036 2.812 1.406 1.776.37 5.328.814 4.958.592 8.14 1.628 3.256 1.035 5.18 3.33 1.998 2.294 1.998 6.216 0 3.404-1.998 5.994t-5.402 3.996-7.548 1.406q-7.4 0-11.914-3.404-4.44-3.405-4.514-9.472zM189.7 21.01h-6.808v-5.55h6.808V4.878h6.068V15.46h9.546v5.55h-9.546v22.274q0 2.368.888 3.404.962.962 3.256.962h6.586v5.55h-6.956q-5.328 0-7.622-2.368-2.22-2.368-2.22-7.474zM211.703 1.4h8.14l18.352 42.994L256.325 1.4h7.992v51.8h-6.29V12.352L240.859 53.2h-5.698l-17.168-40.848V53.2h-6.29zM305.955 15.46V53.2h-5.254l-.814-5.032q-4.292 5.475-12.062 5.476-6.734 0-10.804-4.144t-4.07-13.024V15.46h6.068v20.646q0 5.846 2.516 8.954 2.59 3.034 7.326 3.034 5.18 0 8.066-3.7 2.96-3.7 2.96-10.064V15.46zM330.264 53.2l19.758-51.8h7.622l19.684 51.8h-6.882l-5.476-13.986H342.4L336.924 53.2zm14.06-19.832h18.722L353.648 8.43zM383.189 1.4h6.438v51.8h-6.438z" style="fill:#000;fill-opacity:1"/><path stroke="#000" stroke-width="2.8" d="M69.626 1.4h40.034v5.92H92.862V53.2h-6.438V7.32H69.626z" mask="url(#a)" style="stroke:#000;stroke-opacity:1"/><path stroke="#000" stroke-width="2.8" d="M107.66 34.33q0-5.772 2.22-10.138 2.295-4.365 6.364-6.734 4.071-2.442 9.324-2.442 5.18 0 9.176 2.146t6.29 6.216q2.295 4.07 2.442 9.546 0 .814-.148 2.59h-29.304v.518q.149 5.55 3.404 8.88 3.257 3.33 8.51 3.33 4.071 0 6.882-1.998 2.886-2.071 3.848-5.698h6.142q-1.11 5.772-5.55 9.472-4.44 3.626-10.878 3.626-5.624 0-9.842-2.368-4.218-2.442-6.586-6.808-2.294-4.44-2.294-10.138Zm29.526-3.848q-.444-4.81-3.626-7.474-3.108-2.664-7.918-2.664-4.291 0-7.548 2.812-3.255 2.813-3.7 7.326z" mask="url(#a)" style="stroke:#000;stroke-opacity:1"/><path stroke="#000" stroke-width="2.8" d="M154.992 40.768q.148 3.405 2.96 5.55 2.886 2.145 7.4 2.146 3.996 0 6.438-1.554 2.516-1.627 2.516-4.218 0-2.22-1.184-3.404t-3.108-1.628q-1.85-.444-5.328-.888-4.884-.593-7.992-1.554t-5.032-3.034q-1.924-2.146-1.924-5.846 0-3.33 1.85-5.92 1.924-2.59 5.18-3.996 3.256-1.48 7.326-1.48 6.66 0 10.804 3.108 4.218 3.108 4.662 8.88h-6.068q-.37-2.96-2.886-4.884t-6.29-1.924q-3.847 0-6.216 1.628-2.368 1.554-2.368 4.144 0 1.925 1.11 2.96 1.11 1.036 2.812 1.406 1.776.37 5.328.814 4.958.592 8.14 1.628 3.256 1.035 5.18 3.33 1.998 2.294 1.998 6.216 0 3.404-1.998 5.994t-5.402 3.996-7.548 1.406q-7.4 0-11.914-3.404-4.44-3.405-4.514-9.472z" mask="url(#a)" style="stroke:#000;stroke-opacity:1"/><path stroke="#000" stroke-width="2.8" d="M189.7 21.01h-6.808v-5.55h6.808V4.878h6.068V15.46h9.546v5.55h-9.546v22.274q0 2.368.888 3.404.962.962 3.256.962h6.586v5.55h-6.956q-5.328 0-7.622-2.368-2.22-2.368-2.22-7.474z" mask="url(#a)" style="stroke:#000;stroke-opacity:1"/><path stroke="#000" stroke-width="2.8" d="M211.703 1.4h8.14l18.352 42.994L256.325 1.4h7.992v51.8h-6.29V12.352L240.859 53.2h-5.698l-17.168-40.848V53.2h-6.29z" mask="url(#a)" style="stroke:#000;stroke-opacity:1"/><path stroke="#000" stroke-width="2.8" d="M305.955 15.46V53.2h-5.254l-.814-5.032q-4.292 5.475-12.062 5.476-6.734 0-10.804-4.144t-4.07-13.024V15.46h6.068v20.646q0 5.846 2.516 8.954 2.59 3.034 7.326 3.034 5.18 0 8.066-3.7 2.96-3.7 2.96-10.064V15.46z" mask="url(#a)" style="stroke:#000;stroke-opacity:1"/><path stroke="#000" stroke-width="2.8" d="m330.264 53.2 19.758-51.8h7.622l19.684 51.8h-6.882l-5.476-13.986H342.4L336.924 53.2zm14.06-19.832h18.722L353.648 8.43z" mask="url(#a)" style="stroke:#000;stroke-opacity:1"/><path stroke="#000" stroke-width="2.8" d="M383.189 1.4h6.438v51.8h-6.438z" mask="url(#a)" style="stroke:#000;stroke-opacity:1"/></svg>
